assets/svg/icon_header_copy.svg

<svg width="24" height="24" viewBox="0 0 24 24" fill="none" xmlns="http://www.w3.org/2000/svg">
<path d="M15.638 17.1345V18.8153C15.638 19.2611 15.4609 19.6887 15.1456 20.0039C14.8304 20.3191 14.4029 20.4962 13.9571 20.4962H7.23361C6.78781 20.4962 6.36027 20.3191 6.04505 20.0039C5.72983 19.6887 5.55273 19.2611 5.55273 18.8153V9.57055C5.55273 9.12475 5.72983 8.69722 6.04505 8.38199C6.36027 8.06677 6.78781 7.88968 7.23361 7.88968H8.91448M8.91448 5.36837V15.4536C8.91448 15.8994 9.09157 16.3269 9.40679 16.6422C9.72202 16.9574 10.1496 17.1345 10.5953 17.1345H17.3188C17.7646 17.1345 18.1922 16.9574 18.5074 16.6422C18.8226 16.3269 18.9997 15.8994 18.9997 15.4536V8.09306C18.9997 7.86914 18.9549 7.64747 18.868 7.44109C18.7811 7.23471 18.6539 7.04776 18.4938 6.89124L15.7077 4.16655C15.3937 3.8595 14.972 3.68755 14.5328 3.6875H10.5953C10.1496 3.6875 9.72202 3.86459 9.40679 4.17982C9.09157 4.49504 8.91448 4.92258 8.91448 5.36837Z" stroke="#0E0E0E" stroke-width="1.5" stroke-linecap="round" stroke-linejoin="round"/>
</svg>

<svg xmlns="http://www.w3.org/2000/svg" width="24" height="24" fill="none"><path stroke="#0E0E0E" stroke-linecap="round" stroke-linejoin="round" stroke-width="1.5" d="M15.638 17.135v1.68a1.68 1.68 0 0 1-1.68 1.681H7.233a1.68 1.68 0 0 1-1.681-1.68V9.57a1.68 1.68 0 0 1 1.68-1.681h1.681m0-2.522v10.086a1.68 1.68 0 0 0 1.681 1.68h6.724a1.68 1.68 0 0 0 1.68-1.68v-7.36a1.68 1.68 0 0 0-.505-1.203l-2.786-2.724a1.68 1.68 0 0 0-1.175-.48h-3.938a1.68 1.68 0 0 0-1.68 1.681"/></svg>
